src/components/stable/gux-icon/icons/cjv-search.svg

<svg viewBox="0 0 40 40" version="1.1" xmlns="http://www.w3.org/2000/svg" xmlns:xlink="http://www.w3.org/1999/xlink">
    <title>Search</title>
    <g stroke="none" stroke-width="1" fill="none" fill-rule="evenodd">
        <g id="cjv-search">
            <circle id="Oval" fill="#FFFFFF" cx="20" cy="20" r="20"/>
            <g fill="#444A52" id="Shape">
                <path d="M20,40 C31.0457,40 40,31.0457 40,20 C40,8.9543 31.0457,0 20,0 C8.9543,0 0,8.9543 0,20 C0,31.0457 8.9543,40 20,40 Z M26.511,22.7963 L31.811,28.164 L31.811,28.163 C32.061,28.4129 32.061,28.8128 31.811,29.0687 L29.105,31.806 C28.986,31.931 28.817,32 28.649,32 C28.481,32 28.312,31.925 28.193,31.806 L22.918,26.4574 C21.381,27.3762 19.656,27.857 17.912,27.857 C12.45,27.857 8,23.4021 8,17.9285 C8,12.4549 12.45,8 17.912,8 C23.374,8 27.824,12.4549 27.824,17.9285 C27.824,19.6161 27.374,21.2907 26.511,22.7963 Z M23.96,17.9295 C23.96,14.5864 21.248,11.868 17.91,11.868 L17.91,11.867 C14.572,11.867 11.86,14.5854 11.86,17.9285 C11.86,21.2717 14.572,23.99 17.91,23.99 C21.248,23.99 23.96,21.2727 23.96,17.9295 Z"/>
            </g>
        </g>
    </g>
</svg>

<svg viewBox="0 0 40 40" xmlns="http://www.w3.org/2000/svg"><g fill="none" fill-rule="evenodd"><circle fill="#FFF" cx="20" cy="20" r="20"/><path d="M20 40c11.046 0 20-8.954 20-20S31.046 0 20 0 0 8.954 0 20s8.954 20 20 20zm6.511-17.204l5.3 5.368v-.001c.25.25.25.65 0 .906l-2.706 2.737a.635.635 0 01-.456.194.66.66 0 01-.456-.194l-5.275-5.349a9.751 9.751 0 01-5.006 1.4C12.45 27.857 8 23.402 8 17.929 8 12.454 12.45 8 17.912 8c5.462 0 9.912 4.455 9.912 9.928 0 1.688-.45 3.363-1.313 4.868zM23.96 17.93c0-3.344-2.712-6.062-6.05-6.062v-.001c-3.338 0-6.05 2.718-6.05 6.061 0 3.344 2.712 6.062 6.05 6.062 3.338 0 6.05-2.717 6.05-6.06z" fill="#444A52"/></g></svg>
